X:1
T:Great Grandad
M:2/2
L:1/4
K:G
 A F B A/2A/2| F A D2| E F G E/2E/2| B A A3/2 A/2| F A A A/2A/2| G B B B/2B/2|\
 F A A F/2F/2| F D D2|
